X:9
T:The Great Exhibition
C:James Hill
Z:robin.beech@mcgill.ca
B:The Fiddle Music of James Hill
R:hornpipe
M:4/4
L:1/8
K:D
(3ABc | dAfd AdFA | AGBG E2 AG | FAdc Begf | (3efd (3 cdB Agfe |
dAfd AdFA | AGBG E2 AG | FdAF Ggec | e2 d2 d2 ::
FG | ABcd eAce | dFAd fAdf | fegf edcd | (3efd (3 cdB Agfe |
dAfd AdFA | AGBG EBAG | FdAF Ggec | e2 d2 d2 :|
